X: 1
T: Kopanitsa
M: 9/8
L: 1/8
R: slip jig
K: Bmin
M: 11/8
A2 B2 B2A f4|ed ef ef/e/d B4|ed ef ef/e/d dc Bc|dB cA B2f B4:|
|:de ed ef/e/d dc Bc|de ed f2e dc BA|de ed ef/e/d dc Bc|dB cA B2f B4:|
|:ef fd ef/e/d e2 f2|ef fd ef/e/d de/d/ cB|ef fd ef/e/d e2 f2|ef fd ef/e/d de/d/ cB|
de ec de/d/c d2 e2|de ec de/d/c cd/c/ BA|de ec de/d/c d2 e2|f/e/d cA B2f B4:|
|:ed cA B/c/BA cd e2|ed cA B/c/BA cd e2|ed cA B/c/BA cd e2|f/e/d cA B2f B4:|
|:AB Bd c/B/Bd cB ef|AB Bd c/B/Bd cA B2|AB Bd c/B/Bd cB ef|1AB Bd c/B/Bd cA B2:|2AB Bd c/B/Bd cB A2||
|:cd/c/ _Bc/B/ A2G c2 BA|cd/c/ _Bc/B/ A2G AB cd|cd/c/ _Bc/B/ A2G c2 BA|cd/c/ _Bc/B/ GAB Az A2:|
